!! Joseph Haydn String Quartet Op.54 #2
!! Second movement, "Adagio"
!! Encoded by Sandra Serafini, 1990.
**kern	**kern	**kern	**kern
!'cello	!viola	!violn2	!violn1
*M3/4	*M3/4	*M3/4	*M3/4
*c:	*c:	*c:	*c:
=1	=1	=1	=1
[2.C	{4E-	{2c	{4c
.	4G	.	4e-
.	4F}	4Bn}	4d}
=2	=2	=2	=2
4C]	4E-	2.c	{4c
{4EE-	{4e-	.	4gT
4FF}	4d}	.	4a-}
=3	=3	=3	=3
{4GGn	[2.G	{4Bn	{4d
4AAn	.	4c	4g
4BBn}	.	4d}	4f}
=4	=4	=4	=4
{4C	2.G]	{4d	{4f
4E-	.	4c	4e-T
4G}	.	4Bn}	4d}
=5	=5	=5	=5
[2.C	{4G	[2.e-	{4e-
.	4E-	.	4a-
.	4G}	.	4g}
=6	=6	=6	=6
4C]	{4An	4e-]	{4f#
{4BB-	4G}	{4d	4g
4FF#}	[4d	4c}	4an}
=7	=7	=7	=7
{4GG	4d]	{4B-	{4b-
4CC	{4an	4e-}	4cc}
4DD}	4f#}	4c	{8.anT
.	.	.	32g
.	.	.	32a}
=8	=8	=8	=8
2GG	2d	2Bn	2g
4r	4r	4r	4r
=9	=9	=9	=9
[2.C	{4E-	{4c	4r
.	4G	4e-	4r
.	4Fn}	4Bn 4d}	32r
.	.	.	{32g
.	.	.	32an
.	.	.	32bn
.	.	.	32cc'
.	.	.	32dd'
.	.	.	32ee-'
.	.	.	32ff'}
=10	=10	=10	=10
4C]	{4E-	4c	{8gg'
.	.	.	8gg'}
{4EE-	2c}	{4gT	{24gg'
.	.	.	24gg'
.	.	.	24gg'
.	.	.	24gg'
.	.	.	24gg'
.	.	.	24gg'}
4FF}	.	4a-}	{16gg
.	.	.	16ccc
.	.	.	32bb-
.	.	.	32aa-
.	.	.	32gg
.	.	.	32ff}
=11	=11	=11	=11
{4GG	{4Bn	{4d	{32ee-
.	.	.	32dd
.	.	.	32ff
.	.	.	32ee-
.	.	.	32gg
.	.	.	32ff
.	.	.	32ee-
.	.	.	32dd}
4AAn	4c	4g	{32cc
.	.	.	32bn
.	.	.	32dd
.	.	.	32cc
.	.	.	32ee-
.	.	.	32dd
.	.	.	32cc
.	.	.	32b-}
4BBn}	4d}	4G 4f}	{24an'
.	.	.	24g'
.	.	.	24dd'
.	.	.	24cc'
.	.	.	24bn'
.	.	.	24a-'}
=12	=12	=12	=12
{4C	{4d	{4G 4f	{24g'
.	.	.	24a-'
.	.	.	24g'
.	.	.	24f'
.	.	.	24e-'
.	.	.	24d'}
4E-	4c	4G 4e-T	{32c
.	.	.	32Bn
.	.	.	32c
.	.	.	32d
.	.	.	32e-
.	.	.	32f
.	.	.	32g
.	.	.	32an}
4G}	4Bn}	4G 4d}	{32bn
.	.	.	32cc
.	.	.	32b
.	.	.	32cc
.	.	.	8b}
=13	=13	=13	=13
[2.C	2.c	{4G 4e-	2.r
.	.	4a-	.
.	.	4g}	.
=14	=14	=14	=14
4C]	{4An	{4f#	32r
.	.	.	{32ee-
.	.	.	32dd
.	.	.	32ee-
.	.	.	32dd
.	.	.	32ee-
.	.	.	32dd
.	.	.	32ee-}
{4BB-	4d	4g	{32dd
.	.	.	32ee-
.	.	.	32ff
.	.	.	32ee-
.	.	.	32dd
.	.	.	32cc
.	.	.	32ff
.	.	.	32ee-}
4FF#}	4c}	4d 4an}	{32dd
.	.	.	32cc
.	.	.	32bb-
.	.	.	32aan
.	.	.	32gg
.	.	.	32ff#
.	.	.	32ee-
.	.	.	32dd}
=15	=15	=15	=15
{4GG	{4B-	{4d 4b-	{24cc'
.	.	.	24b-'
.	.	.	24ee-'
.	.	.	24dd'
.	.	.	24cc'
.	.	.	24b-'}
4CC	4An}	4cc}	{24ee-'
.	.	.	24dd'
.	.	.	24ff'
.	.	.	24ee-'
.	.	.	24dd'
.	.	.	24cc'}
4DD}	{8F#	{8.anT	{32b-
.	.	.	32an
.	.	.	32gg
.	.	.	32ff#
.	8c}	.	32ee-
.	.	.	32dd
.	.	32g	32cc}
.	.	32a}	[{32ff#
=16	=16	=16	=16
4GG	2Bn	2g	32ff#]
.	.	.	32aan
.	.	.	32ff#
.	.	.	32gg
.	.	.	32cc#
.	.	.	32dd
.	.	.	32an
.	.	.	32bn
4G	.	.	32f#
.	.	.	32g
.	.	.	32d
.	.	.	32Bn
.	.	.	8G}
4GG	4r	4r	4r
=17	=17	=17	=17
[2.E-	{4G	{4e-	4r
.	4B-	4g	4r
.	4A- 4d}	4fn}	24r
.	.	.	24d'
.	.	.	24cc'
.	.	.	24a-
.	.	.	24fn
.	.	.	[24dd
=18	=18	=18	=18
4E-]	4G 2e-	{4e-	24dd]
.	.	.	{24ffn
.	.	.	24ee-}
.	.	.	{24an
.	.	.	24b-}
.	.	.	{24f#
{4GG	4r	4dd	24g}
.	.	.	24b-
.	.	.	24dd
.	.	.	{16ee-'
.	.	.	16ee-'}
4FFn}	4a-}	4dd-}	{24ee-'
.	.	.	24ee-'
.	.	.	24ee-'
.	.	.	24ee-'
.	.	.	24ee-'
.	.	.	24ee-'}
=19	=19	=19	=19
{2EEn	{2g	{4cc	{16ff
.	.	.	16een
.	.	.	16gg
.	.	.	16bb-
.	.	4b-	16ddd-}
.	.	.	8ddd-
.	.	.	[{16ddd-
4FF}	4c}	4a-}	24ddd-]
.	.	.	24ccc}
.	.	.	{24gg
.	.	.	24aa-
.	.	.	24een
.	.	.	[24ff
=20	=20	=20	=20
{4BB-	{4d-	{4g	16ff}]
.	.	.	8ff
.	.	.	[{16ff
2C	4A-	4f	32ff]
.	.	.	32gg
.	.	.	32bb-
.	.	.	32ddd-
.	.	.	32ccc
.	.	.	32bb-
.	.	.	32aa-
.	.	.	32gg}
.	4G	4en	{32ff
.	.	.	32een
.	.	.	32gg
.	.	.	32ff
.	.	.	32ee
.	.	.	32dd-
.	.	.	32cc
.	.	.	32b-}
=21	=21	=21	=21
4FF}	4A-}	4f}	{32b-
.	.	.	32cc
.	.	.	32g
.	.	.	32b-}
.	.	.	{32a-
.	.	.	32en}
.	.	.	32f'
.	.	.	32g'
4F	{2dn	{2Bn 2a-	{32a-
.	.	.	32e-}
.	.	.	32f'
.	.	.	32g'
.	.	.	{32a-
.	.	.	32e-}
.	.	.	32f'
.	.	.	32g'
4F	.	.	32a-'
.	.	.	{32bn
.	.	.	32dd
.	.	.	32ff}
.	.	.	16aa-'
.	.	.	[16b
=22	=22	=22	=22
4E-	4c}	4g}	16b]
.	.	.	[{16b
.	.	.	24b]
.	.	.	24cc}
.	.	.	[24ee-
{4D	{4f	{8bnT	16ee-]
.	.	.	16ee-'
.	.	16an	{32ee-
.	.	.	32dd
.	.	16b	32ff
.	.	.	[32aa-
4C}	4e-}	4cc}	16aa-}]
.	.	.	{16gg'
.	.	.	16gg'
.	.	.	16gg'}
=23	=23	=23	=23
{2BBn	4f	4dd	24gg'
.	.	.	24ff#'
.	.	.	24ffn'
.	.	.	24een'
.	.	.	24ee-'
.	.	.	24dd'
.	{4d	{4G 4f	24cc'
.	.	.	24bn'
.	.	.	24a-'
.	.	.	24g'
.	.	.	24f'
.	.	.	24e-'
4C}	4c}	8.G 8.e-T	{24d'
.	.	.	24c'
.	.	.	24Bn'
.	.	.	24c'
.	.	.	24d'
.	.	32d	24e-'}
.	.	32e-}	.
=24	=24	=24	=24
4GG	4Bn	4G 4d	{24en
.	.	.	24f
.	.	.	24f#
.	.	.	24an
.	.	.	24g
.	.	.	24cc}
8G'	4r	4r	{32bn
.	.	.	32dd
.	.	.	32cc
.	.	.	32ee-
8F'	.	.	32dd
.	.	.	32gg
.	.	.	32ff#
.	.	.	32aan}
8E-'	4r	4r	8gg
8D'	.	.	8r
=25	=25	=25	=25
[2.C	{4E-	{4c	4r
.	4G	4e-	16r
.	.	.	{16g
.	.	.	16cc
.	.	.	16bn}
.	4F}	4Bn 4d}	{32dd
.	.	.	32cc
.	.	.	32ee-
.	.	.	32dd
.	.	.	32ff
.	.	.	32ee-
.	.	.	32gg
.	.	.	32ff}
=26	=26	=26	=26
4C]	{4E-	{4c	{16aa-
.	.	.	16gg}
.	.	.	16gg'
.	.	.	16gg'
{4EE-	2c}	4gT	24gg'
.	.	.	24gg'
.	.	.	24gg'
.	.	.	{32gg'
.	.	.	32gg'
.	.	.	32gg'
.	.	.	32gg'}
4FF}	.	4a-}	{16gg
.	.	.	16ccc
.	.	.	32bb-
.	.	.	32aa-
.	.	.	32gg
.	.	.	32ff}
=27	=27	=27	=27
{4GG	{4Bn	{4d	{32ee-
.	.	.	32dd
.	.	.	32ff
.	.	.	32ee-
.	.	.	32gg
.	.	.	32ff
.	.	.	32ee-
.	.	.	32dd}
4AAn	4c	4g	{32cc
.	.	.	32bn
.	.	.	32dd
.	.	.	32cc
.	.	.	32ee-
.	.	.	32dd
.	.	.	32cc
.	.	.	32b}
4BBn}	4d}	4f}	{24an'
.	.	.	24g'
.	.	.	24dd'
.	.	.	24cc'
.	.	.	24b'
.	.	.	24a-'}
=28	=28	=28	=28
{4C	{4d	{4f	24g'
.	.	.	24a-'
.	.	.	24g'
.	.	.	24f'
.	.	.	24e-'
.	.	.	24d'
4E-	4c	4e-T	24c'
.	.	.	24Bn'
.	.	.	24c'
.	.	.	24e-'
.	.	.	24g'
.	.	.	24bn'
4G}	4Bn}	4d}	32cc'
.	.	.	32dd'
.	.	.	32ee-'
.	.	.	32een'
.	.	.	32ff'
.	.	.	32ff#'
.	.	.	32gg'
.	.	.	32ff#'
=29	=29	=29	=29
2A-	2c	{4c	16gg
.	.	.	16gg
.	.	.	16gg
.	.	.	16gg
.	.	4f}	24gg
.	.	.	24ffn
.	.	.	24ccc
.	.	.	24ccc
.	.	.	24ccc
.	.	.	24ccc
4G	4dn	4B- 4g	{32ccc'
.	.	.	32ccc'
.	.	.	32ccc'
.	.	.	32ccc'
.	.	.	32ccc'
.	.	.	32ccc'
.	.	.	32ccc'
.	.	.	32ccc'}
=30	=30	=30	=30
4F	4f	4c 4a-	{24ccc
.	.	.	24bb-
.	.	.	24ddd-
.	.	.	24ccc
.	.	.	24bb-
.	.	.	24aa-}
{4D	{4a-	{4f 4bn	{24gg
.	.	.	24ff
.	.	.	24ee-
.	.	.	24ddn
.	.	.	24cc
.	.	.	24bn}
4E-}	4g}	4e- 4cc}	{24a-
.	.	.	24g
.	.	.	24f
.	.	.	24e-
.	.	.	24d
.	.	.	24c}
=31	=31	=31	=31
{4F	{4f	{4a-	{32Bn
.	.	.	32c
.	.	.	32B
.	.	.	32c
.	.	.	32B
.	.	.	32c
.	.	.	32B
.	.	.	32c}
4G}	4e-}	4g}	{32B
.	.	.	32c
.	.	.	32e-
.	.	.	32g
.	.	.	32cc
.	.	.	32ee-
.	.	.	32gg
.	.	.	32ccc}
4GG	4d	{8Bn	{16eee-
.	.	.	16ddd}
.	.	8f}	16r
.	.	.	16bn
=32	=32	=32	=32
2.AA-	[2.c	[2.e-	16r
.	.	.	{16bn'
.	.	.	16b'
.	.	.	16b'}
.	.	.	{32b
.	.	.	32dd
.	.	.	32cc
.	.	.	32ee-
.	.	.	32dd
.	.	.	32ff
.	.	.	32ee-
.	.	.	32gg}
.	.	.	{32ff
.	.	.	32aa-
.	.	.	32gg
.	.	.	32ff
.	.	.	32ee-
.	.	.	32dd
.	.	.	32ff
.	.	.	32ee-}
=33	=33	=33	=33
2AA-	2c_	16e-]	{32gg
.	.	.	32ff
.	.	{16f'	32ee-
.	.	.	32dd
.	.	16f#'	32cc
.	.	.	32bn
.	.	16f#'}	32dd
.	.	.	32cc}
.	.	[4f	{32ee-
.	.	.	32b
.	.	.	32cc
.	.	.	32dd}
.	.	.	{32ee-
.	.	.	32b
.	.	.	32cc
.	.	.	32dd}
4AA-	16c]	16f]	{16ee-
.	{16E-'	{16c'	16f#}
.	16E-'	16c'	16f#'
.	16E-'}	16c'}	16f#'
=34	=34	=34	=34
2.GG	{4E-	{4c	16f#'
.	.	.	{32f#T
.	.	.	32en
.	.	.	32f#
.	.	.	32an
.	.	.	16g}
.	8.D	8.Bn	{8.g
.	16E-}	16c}	16f#}
.	{16D	{16B	{16g
.	16E-	16c	16f#
.	16D	16B	16g
.	16E-}	16c}	16f#}
=35	=35	=35	=35
2.GG	2.D	2.Bn	2.g
======	======	======	======
*-	*-	*-	*-
